X:1
T:'Til the Storm Passes By
T:'Til The Storm Passes By
T:Mosie Lister, 1958
C:Mosie Lister 1958
Z:All Rights Reserved
L:1/8
Q:1/4=85
M:3/4
K:Db
V:1 treble nm="Voice"
%%MIDI channel 3
%%MIDI program 54
V:1
"^With Feeling" z6 | z6 | z6 | z6 | z6 | z4 DE |"Db" F4 FG | A F3 EF |"Ab7/Eb" G4"Ddim7" FA | %9
w: |||||In the|dark of the|mid night have I|oft hid my|
"Ab7/Eb" G4 AB |"Ab7" c4 BA | c B3 AG | B4 AG |"Db" F4 DE | F4 FG | A F3 ED |"Gb" B4 Bc | d4 BB | %18
w: face while the|storms howl a|round me and there's|no Hid ing|place 'mid the|crash of the|thun der pre cious|Lord hear my|cry keep me|
"Db" A4 D"Gbm6"E |"Db/Ab" F4"Ab7" EE |"Db" D6- | D4 FF |"Ab" E4 EF | G E3 FG |"Db" A A3 (3A-GF | %25
w: safe 'til the|stom pas ses|by|_ 'til the|stom pas ses|o ver 'till the|thun der sounds _ no|
 A4 AA |"Eb7" B4 BB | B =G3 AB |"Ab" c6- | c2 z2"Ab7" cc |"Db" d4 dd | A4"Db7" dd |"Gb" e d3 dB | %33
w: more 'till the|clouds roll for|ev er from the|sky|_ Hold me|fast let me|stand in the|hol low of Thy|
"Db" A4"Gb" BB |"Db" A4"Db/Bb" D"Gbm6"E |"Db/Ab" F4"Ab7" EE |"Db" D6- | D2 z2 DE |"Db" F4 FG | %39
w: hand keep me|safe 'till the|storm pas ses|by|_ man y|times Sa tan|
 A F3 EF |"Ab7/Eb" G4"Ddim7" FA |"Ab7/Eb" G4 AB |"Ab7" c4 BA | c B3 AG | B4 AG |"Db" F4 DE | %46
w: tells me "There is|no need to|try, for there's|no end of|sor row there's no|hope by and|by" but I|
 F4 FG | A F3 ED |"Gb" B4 Bc | d4 BB |"Db" A4 D"Gbm6"E |"Db/Ab" F4"Ab7" EE |"Db" D6 | D4 FF | %54
w: know Thou art|with me and to|mor row I'll|rise where the|storm nev er|dark ens the|sky|_ 'til the|
"Ab" E4 EF | G E3 FG |"Db" A A3 (3A-GF | A4 AA |"Eb7" B4 BB | B =G3 AB |"Ab" c6- | c2 z2"Ab7" cc | %62
w: stom pas ses|o ver 'till the|thun der sounds _ no|more 'till the|clouds roll for|ev er from the|sky|_ Hold me|
"Db" d4 dd | A4"Db7" dd |"Gb" e d3 dB |"Db" A4"Gb" BB |"Db" A4"Db/Bb" D"Gbm6"E | %67
w: fast let me|stand in the|hol low of Thy|hand keep me|safe 'till the|
"Db/Ab" F4"Ab7" EE |"Db" D6- | D2 z2 DE |"Db" F4 FG | A F3 EF |"Ab7/Eb" G4"Ddim7" FA | %73
w: storm pas ses|by|_ in the|dark of the|mid night have I|oft hid my|
"Ab7/Eb" G4 AB |"Ab7" c4 BA | c B3 AG | B4 AG |"Db" F4 DE | F4 FG | A F3 ED |"Gb" B4 Bc | d4 BB | %82
w: face while the|storms howl a|round me and there's|no Hid ing|place 'mid the|crash of the|thun der pre cious|Lord hear my|cry keep me|
"Db" A4 D"Gbm6"E |"Db/Ab" F4"Ab7" EE |"Db" D6- | D4 FF |"Ab" E4 EF | G E3 FG |"Db" A A3 (3A-GF | %89
w: safe 'il the|stom pas ses|by|_ 'til the|stom pas ses|o ver 'till the|thun der sounds _ no|
 A4 AA |"Eb7" B4 BB | B =G3 AB |"Ab" c6- | c2 z2"Ab7" cc |"Db" d4 dd | A4"Db7" dd |"Gb" e d3 dB | %97
w: more 'till the|clouds roll for|ev er from the|sky|_ Hold me|fast let me|stand in the|hol low of Thy|
"Db" A4"Gb" BB |"Db" A4"Db/Bb" D"Gbm6"E |"Db/Ab" F4"Ab7" EE |"Db" D6- | D2 z2 DE |"Db" F4 FG | %103
w: hand keep me|safe 'till the|storm pas ses|by|_ when the|long night has|
 A F3 EF |"Ab7/Eb" G4"Ddim7" FA |"Ab7/Eb" G4 AB |"Ab7" c4 BA | c B3 AG | B4 AG |"Db" F4 DE | %110
w: end ed and the|storms come no|more Let me|stand in Thy|pres ence on that|bright peace ful|shore in that|
 F4 FG | A F3 ED |"Gb" B4 Bc | d4 BB |"Db" A4 D"Gbm6"E |"Db/Ab" F4"Ab7" EE |"Db" D6 | D4 FF | %118
w: land where the|temp est nev er|comes Lord may|I dwell with|Thee when the|storm pas ses|by|_ 'til the|
"Ab" E4 EF | G E3 FG |"Db" A A3 (3A-GF | A4 AA |"Eb7" B4 BB | B =G3 AB |"Ab" c6- | c2 z2"Ab7" cc | %126
w: stom pas ses|o ver 'till the|thun der sounds _ no|more 'till the|clouds roll for|ev er from the|sky|_ Hold me|
"Db" d4 dd | A4"Db7" dd |"Gb" e d3 dB |"Db" A4"Gb" BB |"Db" A4"Db/Bb" D"Gbm6"E | %131
w: fast let me|stand in the|hol low of Thy|hand keep me|safe 'till the|
"Db/Ab" F4"Ab7" EE |"Db" D6- | D6 | z6 |] %135
w: storm pas ses|by|_||

